X:265
T:Freeford Gardens
T:Edgeworth Bumpkins
C:Daniel Wright, 1740
S:Colin Hume's website,  colinhume.com  - chords can also be printed below the stave.
Q:1/2=100
M:2/2
L:1/4
K:G
P:A
|: d | "G"B3/A/ GB | "D7"AG/F/ "G"Gg | "Bm"fe/d/ "C"ed/c/ | "G"BG- G B |\
"D"AG/F/ "G"GB | "D"AG/F/ "Em"G/A/B/c/ | "Bm"dc- "C"cB | "D"A3 :|
P:B
|: d | "C"ed/c/ "G"B/c/d | "Em"G/A/B "C"c2 | "Am"c/d/e Ae | "Am"a/b/c' "D7"f2 |\
"G"gf- "Bm"fe- | "C"ed- "G/B"dc- | "Am"cB/c/ "D7"AG/F/ | "G"G3 :|

